tools/download-figma-icons/icons/outlined-medium/child.svg

<svg width="24" height="24" viewBox="0 0 24 24" fill="none" xmlns="http://www.w3.org/2000/svg">
<path fill-rule="evenodd" clip-rule="evenodd" d="M1.5 12C1.5 17.79 6.21 22.5 12 22.5C17.79 22.5 22.5 17.79 22.5 12C22.5 10.9605 22.3425 9.95774 22.0597 9.009C19.9298 9.045 18.1597 8.45325 16.815 7.23075C15.8573 6.36 15.2565 5.30325 14.88 4.3365C14.0715 6.13575 12.864 7.55775 11.2718 8.58074C8.9625 10.0665 6.288 10.4287 4.2315 10.4287C3.15375 10.4287 2.256 10.3297 1.65975 10.2405C1.56225 10.8142 1.5 11.3992 1.5 12ZM13.5315 1.6245C13.0305 1.551 12.5213 1.5 12 1.5C7.3365 1.5 3.37875 4.55775 2.013 8.77125C3.639 8.991 7.482 9.24075 10.4685 7.31475C11.763 6.48075 12.753 5.3145 13.4415 3.84675C11.9985 4.986 10.3905 5.33925 9.1785 5.33925C8.7615 5.33925 8.391 5.298 8.091 5.2335C7.68675 5.145 7.4295 4.746 7.5165 4.34175C7.60425 3.9375 8.00475 3.681 8.40525 3.76575C8.544 3.795 11.454 4.34625 13.5315 1.6245ZM17.8312 6.1275C18.768 6.97425 19.9905 7.43025 21.4732 7.50225C20.3332 5.112 18.3232 3.219 15.8475 2.24025C16.0237 3.21975 16.509 4.932 17.8312 6.1275ZM0.357 9.1485C1.64175 3.906 6.3675 0 12 0C18.6165 0 24 5.3835 24 12C24 18.6165 18.6165 24 12 24C5.3835 24 0 18.6165 0 12C0 11.055 0.12075 10.1407 0.32775 9.258C0.329247 9.24977 0.328877 9.24172 0.328503 9.23359C0.328127 9.22541 0.327747 9.21714 0.32925 9.2085C0.33203 9.19698 0.337752 9.18694 0.343524 9.17681C0.348655 9.16781 0.353824 9.15874 0.357 9.1485ZM10.5 12.375C10.5 12.9967 9.996 13.5 9.375 13.5C8.754 13.5 8.25 12.9967 8.25 12.375C8.25 11.7533 8.754 11.25 9.375 11.25C9.996 11.25 10.5 11.7533 10.5 12.375ZM14.625 11.25C14.004 11.25 13.5 11.7533 13.5 12.375C13.5 12.9967 14.004 13.5 14.625 13.5C15.246 13.5 15.75 12.9967 15.75 12.375C15.75 11.7533 15.246 11.25 14.625 11.25ZM9.36659 16.5956C9.48359 16.6601 12.0546 18.0469 14.6323 16.5964C14.9923 16.3931 15.4498 16.5214 15.6531 16.8821C15.8571 17.2436 15.7288 17.7004 15.3673 17.9036C14.2348 18.5411 13.1091 18.7534 12.1116 18.7534C10.1766 18.7534 8.72309 17.9546 8.63234 17.9036C8.27159 17.7004 8.14334 17.2436 8.34659 16.8821C8.54834 16.5221 9.00434 16.3939 9.36659 16.5956Z" fill="black"/>
</svg>

<svg xmlns="http://www.w3.org/2000/svg" width="24" height="24" fill="none" viewBox="0 0 24 24"><path fill="currentColor" fill-rule="evenodd" d="M1.5 12c0 5.79 4.71 10.5 10.5 10.5S22.5 17.79 22.5 12c0-1.04-.157-2.042-.44-2.991-2.13.036-3.9-.556-5.245-1.778-.958-.871-1.559-1.928-1.935-2.894-.809 1.799-2.016 3.22-3.608 4.244-2.31 1.486-4.984 1.848-7.04 1.848-1.078 0-1.976-.1-2.572-.188A10.5 10.5 0 0 0 1.5 12M13.532 1.625A10.5 10.5 0 0 0 12 1.5c-4.663 0-8.621 3.058-9.987 7.271 1.626.22 5.469.47 8.456-1.456 1.294-.834 2.284-2 2.973-3.468a6.93 6.93 0 0 1-4.264 1.492c-.417 0-.787-.041-1.087-.106a.75.75 0 0 1-.574-.891.753.753 0 0 1 .888-.576c.139.029 3.049.58 5.127-2.141m4.3 4.503c.936.846 2.159 1.302 3.641 1.374a10.54 10.54 0 0 0-5.625-5.262c.176.98.661 2.692 1.983 3.888M.356 9.148C1.642 3.907 6.367 0 12 0c6.616 0 12 5.384 12 12s-5.384 12-12 12S0 18.616 0 12c0-.945.12-1.86.328-2.742v-.024l.001-.025q.005-.018.015-.032zM10.5 12.376a1.125 1.125 0 1 1-2.25 0 1.125 1.125 0 0 1 2.25 0m4.125-1.125a1.125 1.125 0 1 0 0 2.25 1.125 1.125 0 0 0 0-2.25m-5.258 5.346c.117.064 2.688 1.45 5.265 0a.75.75 0 1 1 .735 1.308 6.56 6.56 0 0 1-3.255.85c-1.935 0-3.389-.8-3.48-.85a.75.75 0 0 1 .735-1.308" clip-rule="evenodd"/></svg>
